X:18456
T:Waltz. CJF.026
M:3/8
L:1/16
Q:50
C:From J J
S: C.J.Fox MS, 1829/33, Beverley,E.Yorks.
R:Waltz
O:England
A:East Yorkshire
B:Kidson Coll.Mitchell Lib.M1805
Z:P J Headford 2000
K:D
fe|d2dAdf|d2dAdf|d2dAdf|f2e2 ed|c2cAce|c2cAce|\
a3g ((3fge)|d4:|:!ag|f2g2a2|b4gf|
e2f2g2|a4fe|d2e2f2|g4ed|c2cdec|d4h:|:!dc|B2(Bcde)|\
f2(fedc)|B2Bcde|f2F2F2|B2(Bcde)|
f2fedc|B2d2c2|B4:|:!e2|e3dcB|A2ABcd|e3dcB|A4dc|\
B2Bcde|f2fedc|B2d2c2" D.C."B4:|]


